Faba/22x22/actions/zoom-fit-best.svg

<?xml version="1.0" encoding="UTF-8" standalone="no"?>
<!-- Created with Inkscape (http://www.inkscape.org/) -->

<svg
   xmlns:dc="http://purl.org/dc/elements/1.1/"
   xmlns:cc="http://creativecommons.org/ns#"
   xmlns:rdf="http://www.w3.org/1999/02/22-rdf-syntax-ns#"
   xmlns:svg="http://www.w3.org/2000/svg"
   xmlns="http://www.w3.org/2000/svg"
   xmlns:xlink="http://www.w3.org/1999/xlink"
   xmlns:sodipodi="http://sodipodi.sourceforge.net/DTD/sodipodi-0.dtd"
   xmlns:inkscape="http://www.inkscape.org/namespaces/inkscape"
   width="22"
   height="22"
   id="svg3495"
   version="1.1"
   inkscape:version="0.48.4 r9939"
   sodipodi:docname="zoom-fit-best.svg">
  <defs
     id="defs3497">
    <clipPath
       clipPathUnits="userSpaceOnUse"
       id="clipPath3669">
      <path
         inkscape:connector-curvature="0"
         d="M 0,96 96,96 96,0 0,0 0,96 z"
         id="path3671" />
    </clipPath>
    <linearGradient
       inkscape:collect="always"
       xlink:href="#linearGradient3821"
       id="linearGradient4448"
       x1="8"
       y1="16"
       x2="8"
       y2="0"
       gradientUnits="userSpaceOnUse"
       gradientTransform="matrix(1,0,0,-1,0,16)" />
    <linearGradient
       id="linearGradient3821">
      <stop
         style="stop-color:#f7f7f7;stop-opacity:1;"
         offset="0"
         id="stop3823" />
      <stop
         style="stop-color:#dddddd;stop-opacity:1;"
         offset="1"
         id="stop3825" />
    </linearGradient>
    <linearGradient
       y2="0"
       x2="8"
       y1="16"
       x1="8"
       gradientTransform="matrix(1,0,0,-1,21.256543,59.181981)"
       gradientUnits="userSpaceOnUse"
       id="linearGradient3075"
       xlink:href="#linearGradient3821"
       inkscape:collect="always" />
    <linearGradient
       inkscape:collect="always"
       xlink:href="#linearGradient3821"
       id="linearGradient3859"
       x1="2.5"
       y1="11"
       x2="19.5"
       y2="11"
       gradientUnits="userSpaceOnUse"
       gradientTransform="matrix(0,1,-1,0,22,26)" />
    <radialGradient
       inkscape:collect="always"
       xlink:href="#linearGradient3952"
       id="radialGradient3200"
       gradientUnits="userSpaceOnUse"
       gradientTransform="matrix(1,0,0,0.75,-22,-12.125)"
       cx="40"
       cy="43.5"
       fx="40"
       fy="43.5"
       r="2" />
    <linearGradient
       inkscape:collect="always"
       id="linearGradient3952">
      <stop
         style="stop-color:#000000;stop-opacity:1;"
         offset="0"
         id="stop3954" />
      <stop
         style="stop-color:#000000;stop-opacity:0;"
         offset="1"
         id="stop3956" />
    </linearGradient>
    <radialGradient
       inkscape:collect="always"
       xlink:href="#linearGradient3944"
       id="radialGradient3197"
       gradientUnits="userSpaceOnUse"
       gradientTransform="matrix(1,0,0,0.75,-5,-12.125)"
       cx="9"
       cy="43.5"
       fx="9"
       fy="43.5"
       r="2" />
    <linearGradient
       inkscape:collect="always"
       id="linearGradient3944">
      <stop
         style="stop-color:#000000;stop-opacity:1;"
         offset="0"
         id="stop3946" />
      <stop
         style="stop-color:#000000;stop-opacity:0;"
         offset="1"
         id="stop3948" />
    </linearGradient>
    <linearGradient
       inkscape:collect="always"
       xlink:href="#linearGradient3960"
       id="linearGradient3194"
       gradientUnits="userSpaceOnUse"
       gradientTransform="translate(-9,-23)"
       x1="25"
       y1="45"
       x2="25"
       y2="42" />
    <linearGradient
       id="linearGradient3960">
      <stop
         style="stop-color:#000000;stop-opacity:0;"
         offset="0"
         id="stop3962" />
      <stop
         id="stop3970"
         offset="0.5"
         style="stop-color:#000000;stop-opacity:1;" />
      <stop
         style="stop-color:#000000;stop-opacity:0;"
         offset="1"
         id="stop3964" />
    </linearGradient>
    <linearGradient
       y2="42"
       x2="25"
       y1="45"
       x1="25"
       gradientTransform="translate(-9,-23)"
       gradientUnits="userSpaceOnUse"
       id="linearGradient3085"
       xlink:href="#linearGradient3960"
       inkscape:collect="always" />
  </defs>
  <sodipodi:namedview
     id="base"
     pagecolor="#ffffff"
     bordercolor="#666666"
     borderopacity="1.0"
     inkscape:pageopacity="0.0"
     inkscape:pageshadow="2"
     inkscape:zoom="1"
     inkscape:cx="4.909295"
     inkscape:cy="8.4828609"
     inkscape:current-layer="layer2"
     showgrid="false"
     inkscape:grid-bbox="true"
     inkscape:document-units="px"
     inkscape:window-width="1364"
     inkscape:window-height="700"
     inkscape:window-x="0"
     inkscape:window-y="28"
     inkscape:window-maximized="1"
     inkscape:snap-bbox="true"
     inkscape:bbox-paths="true"
     inkscape:bbox-nodes="true"
     inkscape:snap-bbox-edge-midpoints="false"
     showguides="true"
     inkscape:guide-bbox="true">
    <inkscape:grid
       type="xygrid"
       id="grid3512"
       empspacing="4"
       visible="true"
       enabled="true"
       snapvisiblegridlinesonly="true"
       dotted="false" />
  </sodipodi:namedview>
  <metadata
     id="metadata3500">
    <rdf:RDF>
      <cc:Work
         rdf:about="">
        <dc:format>image/svg+xml</dc:format>
        <dc:type
           rdf:resource="http://purl.org/dc/dcmitype/StillImage" />
        <dc:title></dc:title>
      </cc:Work>
    </rdf:RDF>
  </metadata>
  <g
     id="layer1"
     inkscape:label="Background"
     inkscape:groupmode="layer"
     transform="translate(0,-26)">
    <g
       style="display:inline"
       id="g3202"
       transform="translate(0,25)">
      <path
         inkscape:connector-curvature="0"
         id="rect3940"
         d="m 18,19 0,3 0.5,0 C 19.331,22 20,21.331 20,20.5 20,19.669 19.331,19 18.5,19 L 18,19 z"
         style="opacity:0.2;fill:url(#radialGradient3200);fill-opacity:1;stroke:none" />
      <path
         inkscape:connector-curvature="0"
         id="rect3942"
         d="M 3.40625,19 C 2.6271875,19 2,19.627187 2,20.40625 l 0,0.1875 C 2,21.372813 2.6271875,22 3.40625,22 L 4,22 4,19 3.40625,19 z"
         style="opacity:0.2;fill:url(#radialGradient3197);fill-opacity:1;stroke:none" />
      <path
         sodipodi:nodetypes="ccccc"
         inkscape:connector-curvature="0"
         id="rect3938"
         d="m 4,19 14,0 0,3 -14,0 z"
         style="opacity:0.2;fill:url(#linearGradient3085);fill-opacity:1;stroke:none" />
    </g>
    <path
       style="color:#000000;fill:url(#linearGradient3859);fill-opacity:1;fill-rule:nonzero;stroke:none;stroke-width:4;marker:none;visibility:visible;display:inline;overflow:visible;enable-background:accumulate"
       d="m 19.5,31 c 0,-1.376351 -1.123649,-2.5 -2.5,-2.5 l -12,0 c -1.376351,0 -2.5,1.123649 -2.5,2.5 l 0,12 c 0,1.376351 1.123649,2.5 2.5,2.5 l 12,0 c 1.376351,0 2.5,-1.123649 2.5,-2.5 l 0,-12 z"
       id="rect2998"
       inkscape:connector-curvature="0" />
    <path
       id="path3018"
       d="m 5,29 c -1.108,0 -2,0.892 -2,2 l 0,12 c 0,1.108 0.892,2 2,2 l 12,0 c 1.108,0 2,-0.892 2,-2 l 0,-12 c 0,-1.108 -0.892,-2 -2,-2 z"
       style="color:#000000;fill:none;stroke:none;stroke-width:4;marker:none;visibility:visible;display:inline;overflow:visible;enable-background:accumulate"
       inkscape:connector-curvature="0"
       sodipodi:nodetypes="sssssssss" />
    <path
       inkscape:connector-curvature="0"
       id="path3861"
       d="m 19.5,31 c 0,-1.376351 -1.123649,-2.5 -2.5,-2.5 l -12,0 c -1.376351,0 -2.5,1.123649 -2.5,2.5 l 0,12 c 0,1.376351 1.123649,2.5 2.5,2.5 l 12,0 c 1.376351,0 2.5,-1.123649 2.5,-2.5 l 0,-12 z"
       style="opacity:0.41000001;color:#000000;fill:none;stroke:#000000;stroke-width:1;stroke-miterlimit:4;stroke-opacity:1;stroke-dasharray:none;marker:none;visibility:visible;display:inline;overflow:visible;enable-background:accumulate" />
  </g>
  <g
     inkscape:groupmode="layer"
     id="layer2"
     inkscape:label="Symbol">
    <path
       id="path3864"
       d="m 6,7 0,2 0,2 2,0 0,-2 2,0 0,-2 -2,0 -2,0 z m 6,0 0,2 2,0 0,2 2,0 0,-2 0,-2 -2,0 -2,0 z m -6,6 0,2 0,2 2,0 2,0 0,-2 -2,0 0,-2 -2,0 z m 8,0 0,2 -2,0 0,2 2,0 2,0 0,-2 0,-2 -2,0 z"
       style="opacity:0.4;color:#000000;fill:#ffffff;fill-opacity:1;fill-rule:nonzero;stroke:none;stroke-width:4;marker:none;visibility:visible;display:inline;overflow:visible;enable-background:accumulate"
       inkscape:connector-curvature="0" />
    <path
       style="color:#000000;fill:#bbbbbb;fill-opacity:1;fill-rule:nonzero;stroke:none;stroke-width:4;marker:none;visibility:visible;display:inline;overflow:visible;enable-background:accumulate"
       d="m 6,6 0,2 0,2 2,0 0,-2 2,0 0,-2 -2,0 -2,0 z m 6,0 0,2 2,0 0,2 2,0 0,-2 0,-2 -2,0 -2,0 z m -6,6 0,2 0,2 2,0 2,0 0,-2 -2,0 0,-2 -2,0 z m 8,0 0,2 -2,0 0,2 2,0 2,0 0,-2 0,-2 -2,0 z"
       id="rect3815"
       inkscape:connector-curvature="0" />
    <path
       style="opacity:0.1;color:#000000;fill:#000000;fill-opacity:1;fill-rule:nonzero;stroke:none;stroke-width:4;marker:none;visibility:visible;display:inline;overflow:visible;enable-background:accumulate"
       d="M 6,6 6,7 8,7 10,7 10,6 8,6 6,6 z m 6,0 0,1 2,0 2,0 0,-1 -2,0 -2,0 z m -6,6 0,1 2,0 0,-1 -2,0 z m 8,0 0,1 2,0 0,-1 -2,0 z m -6,2 0,1 2,0 0,-1 -2,0 z m 4,0 0,1 2,0 0,-1 -2,0 z"
       id="path3866"
       inkscape:connector-curvature="0" />
  </g>
</svg>

<?xml version="1.0" encoding="UTF-8" standalone="no"?>
<!-- Created with Inkscape (http://www.inkscape.org/) -->

<svg
   xmlns:dc="http://purl.org/dc/elements/1.1/"
   xmlns:cc="http://creativecommons.org/ns#"
   xmlns:rdf="http://www.w3.org/1999/02/22-rdf-syntax-ns#"
   xmlns:svg="http://www.w3.org/2000/svg"
   xmlns="http://www.w3.org/2000/svg"
   xmlns:xlink="http://www.w3.org/1999/xlink"
   xmlns:sodipodi="http://sodipodi.sourceforge.net/DTD/sodipodi-0.dtd"
   xmlns:inkscape="http://www.inkscape.org/namespaces/inkscape"
   width="22"
   height="22"
   id="svg3495"
   version="1.1"
   inkscape:version="0.48.4 r9939"
   sodipodi:docname="zoom-fit-best.svg">
  <defs
     id="defs3497">
    <clipPath
       clipPathUnits="userSpaceOnUse"
       id="clipPath3669">
      <path
         inkscape:connector-curvature="0"
         d="M 0,96 96,96 96,0 0,0 0,96 z"
         id="path3671" />
    </clipPath>
    <linearGradient
       inkscape:collect="always"
       xlink:href="#linearGradient3821"
       id="linearGradient4448"
       x1="8"
       y1="16"
       x2="8"
       y2="0"
       gradientUnits="userSpaceOnUse"
       gradientTransform="matrix(1,0,0,-1,0,16)" />
    <linearGradient
       id="linearGradient3821">
      <stop
         style="stop-color:#f7f7f7;stop-opacity:1;"
         offset="0"
         id="stop3823" />
      <stop
         style="stop-color:#dddddd;stop-opacity:1;"
         offset="1"
         id="stop3825" />
    </linearGradient>
    <linearGradient
       y2="0"
       x2="8"
       y1="16"
       x1="8"
       gradientTransform="matrix(1,0,0,-1,21.256543,59.181981)"
       gradientUnits="userSpaceOnUse"
       id="linearGradient3075"
       xlink:href="#linearGradient3821"
       inkscape:collect="always" />
    <linearGradient
       inkscape:collect="always"
       xlink:href="#linearGradient3821"
       id="linearGradient3859"
       x1="2.5"
       y1="11"
       x2="19.5"
       y2="11"
       gradientUnits="userSpaceOnUse"
       gradientTransform="matrix(0,1,-1,0,22,26)" />
  </defs>
  <sodipodi:namedview
     id="base"
     pagecolor="#ffffff"
     bordercolor="#666666"
     borderopacity="1.0"
     inkscape:pageopacity="0.0"
     inkscape:pageshadow="2"
     inkscape:zoom="1"
     inkscape:cx="4.909295"
     inkscape:cy="8.4828609"
     inkscape:current-layer="layer2"
     showgrid="false"
     inkscape:grid-bbox="true"
     inkscape:document-units="px"
     inkscape:window-width="1364"
     inkscape:window-height="700"
     inkscape:window-x="0"
     inkscape:window-y="28"
     inkscape:window-maximized="1"
     inkscape:snap-bbox="true"
     inkscape:bbox-paths="true"
     inkscape:bbox-nodes="true"
     inkscape:snap-bbox-edge-midpoints="false"
     showguides="true"
     inkscape:guide-bbox="true">
    <inkscape:grid
       type="xygrid"
       id="grid3512"
       empspacing="4"
       visible="true"
       enabled="true"
       snapvisiblegridlinesonly="true"
       dotted="false" />
  </sodipodi:namedview>
  <metadata
     id="metadata3500">
    <rdf:RDF>
      <cc:Work
         rdf:about="">
        <dc:format>image/svg+xml</dc:format>
        <dc:type
           rdf:resource="http://purl.org/dc/dcmitype/StillImage" />
        <dc:title />
      </cc:Work>
    </rdf:RDF>
  </metadata>
  <g
     id="layer1"
     inkscape:label="Background"
     inkscape:groupmode="layer"
     transform="translate(0,-26)">
    <path
       style="color:#000000;fill:url(#linearGradient3859);fill-opacity:1;fill-rule:nonzero;stroke:none;stroke-width:4;marker:none;visibility:visible;display:inline;overflow:visible;enable-background:accumulate"
       d="m 19.5,31 c 0,-1.376351 -1.123649,-2.5 -2.5,-2.5 l -12,0 c -1.376351,0 -2.5,1.123649 -2.5,2.5 l 0,12 c 0,1.376351 1.123649,2.5 2.5,2.5 l 12,0 c 1.376351,0 2.5,-1.123649 2.5,-2.5 l 0,-12 z"
       id="rect2998"
       inkscape:connector-curvature="0" />
    <path
       id="path3018"
       d="m 5,29 c -1.108,0 -2,0.892 -2,2 l 0,12 c 0,1.108 0.892,2 2,2 l 12,0 c 1.108,0 2,-0.892 2,-2 l 0,-12 c 0,-1.108 -0.892,-2 -2,-2 z"
       style="color:#000000;fill:none;stroke:none;stroke-width:4;marker:none;visibility:visible;display:inline;overflow:visible;enable-background:accumulate"
       inkscape:connector-curvature="0"
       sodipodi:nodetypes="sssssssss" />
    <path
       inkscape:connector-curvature="0"
       id="path3861"
       d="m 19.5,31 c 0,-1.376351 -1.123649,-2.5 -2.5,-2.5 l -12,0 c -1.376351,0 -2.5,1.123649 -2.5,2.5 l 0,12 c 0,1.376351 1.123649,2.5 2.5,2.5 l 12,0 c 1.376351,0 2.5,-1.123649 2.5,-2.5 l 0,-12 z"
       style="color:#000000;fill:none;fill-opacity:1;fill-rule:nonzero;stroke:#000000;stroke-width:1;marker:none;visibility:visible;display:inline;overflow:visible;enable-background:accumulate;stroke-opacity:1;stroke-miterlimit:4;stroke-dasharray:none;opacity:0.40999999999999998" />
  </g>
  <g
     inkscape:groupmode="layer"
     id="layer2"
     inkscape:label="Symbol">
    <path
       transform="translate(0,-26)"
       id="path3864"
       d="m 6,33 0,2 0,2 2,0 0,-2 2,0 0,-2 -2,0 -2,0 z m 6,0 0,2 2,0 0,2 2,0 0,-2 0,-2 -2,0 -2,0 z m -6,6 0,2 0,2 2,0 2,0 0,-2 -2,0 0,-2 -2,0 z m 8,0 0,2 -2,0 0,2 2,0 2,0 0,-2 0,-2 -2,0 z"
       style="color:#000000;fill:#ffffff;fill-opacity:1;fill-rule:nonzero;stroke:none;stroke-width:4;marker:none;visibility:visible;display:inline;overflow:visible;enable-background:accumulate;opacity:0.40000000000000002"
       inkscape:connector-curvature="0" />
    <path
       style="color:#000000;fill:#bbbbbb;fill-opacity:1;fill-rule:nonzero;stroke:none;stroke-width:4;marker:none;visibility:visible;display:inline;overflow:visible;enable-background:accumulate"
       d="M 6 6 L 6 8 L 6 10 L 8 10 L 8 8 L 10 8 L 10 6 L 8 6 L 6 6 z M 12 6 L 12 8 L 14 8 L 14 10 L 16 10 L 16 8 L 16 6 L 14 6 L 12 6 z M 6 12 L 6 14 L 6 16 L 8 16 L 10 16 L 10 14 L 8 14 L 8 12 L 6 12 z M 14 12 L 14 14 L 12 14 L 12 16 L 14 16 L 16 16 L 16 14 L 16 12 L 14 12 z "
       id="rect3815" />
    <path
       style="color:#000000;fill:#000000;fill-opacity:1;fill-rule:nonzero;stroke:none;stroke-width:4;marker:none;visibility:visible;display:inline;overflow:visible;enable-background:accumulate;opacity:0.10000000000000001"
       d="M 6 6 L 6 7 L 8 7 L 10 7 L 10 6 L 8 6 L 6 6 z M 12 6 L 12 7 L 14 7 L 16 7 L 16 6 L 14 6 L 12 6 z M 6 12 L 6 13 L 8 13 L 8 12 L 6 12 z M 14 12 L 14 13 L 16 13 L 16 12 L 14 12 z M 8 14 L 8 15 L 10 15 L 10 14 L 8 14 z M 12 14 L 12 15 L 14 15 L 14 14 L 12 14 z "
       id="path3866" />
  </g>
</svg>
